!!!!SEGMENT: pl-sa--270-a-vii-30--002_hermanowski-a-planctus-de-passione-ach-me-serce.krn
!!!id: 17xx:339
!!!COM: Hermanowski, A.
!!!OTL: Planctus de Passione – Ach me serce
!!!PDT:
!!!SMS-siglum: PL-SA
!!!SMS-shelfmark: 270/A VII 30
!!!NIFC-rismID: 1001041674
!!!URL-scan: http://bc.bdsandomierz.pl/dlibra/publication/1753/edition/1721/content
!!!ONB-nifc:
**kern	**fba	**kern	**dynam	**kern	**dynam	**kern	**text	**text
*part4	*	*part3	*part3	*part2	*part2	*part1	*part1	*part1
*staff4	*	*staff3	*	*staff2	*	*staff1	*staff1	*staff1
*I"Organo	*	*I"Violino 2do	*	*I"Violin 1mo	*	*I"Canto Solo	*	*
*I'Org	*	*I'vl 2	*	*I'vl 1	*	*I'S	*	*
*clefF4	*	*clefG2	*	*clefG2	*	*clefC1	*	*
*k[b-e-a-]	*	*k[b-e-a-]	*	*k[b-e-a-]	*	*k[b-e-a-]	*	*
*M4/4	*	*M4/4	*	*M4/4	*	*M4/4	*	*
*met(c)	*	*met(c)	*	*met(c)	*	*met(c)	*	*
*>[ABBCC]	*	*>[ABBCC]	*	*>[ABBCC]	*	*>[ABBCC]	*	*
=1	=1	=1	=1	=1	=1	=1	=1	=1
*>A	*	*>A	*	*>A	*	*>A	*	*
!	!	!LO:TX:a:t=1	!	!LO:TX:a:t=Lentysime	!	!	!	!
!LO:TX:b:t=Placz kto zyw	!	!LO:TX:b:t=Ach	!	!LO:TX:a:t=1	!	!LO:TX:a:t=1	!	!
!	!	!	!	!LO:TX:b:t=Placz kto zyw	!	!	!	!
8C/L	.	8ee-\L	.	8gg\L	.	00r	.	.
8C/	.	8ee-\	.	8gg\	.	.	.	.
8C/	.	8ee-\	.	8gg\	.	.	.	.
8C/J	.	8ee-\J	.	8gg\J	.	.	.	.
!	!	!	!	!LO:TX:a:t=P:problem chorągiewki 8\left:global	!	!	!	!
8C/L	.	8ff\	.	8aa-\	.	.	.	.
8C/	6 4	4ee-\	.	4gg\	.	.	.	.
8C/	5_	.	.	.	.	.	.	.
8C/J	.	8ee-\	.	8cc\	.	.	.	.
=2	=2	=2	=2	=2	=2	=2	=2	=2
4BBn/	x	8dd\L	.	8ff\L	.	.	.	.
.	.	16ff\L	.	16aa-\L	.	.	.	.
.	.	16ee-\JJ	.	16gg\JJ	.	.	.	.
4r	.	16dd\LL	.	16ff\LL	.	.	.	.
.	.	16cc\	.	16ee-\	.	.	.	.
.	.	16bn\	.	16dd\	.	.	.	.
.	.	16a-\JJ	.	16cc\JJ	.	.	.	.
8r	.	8a-/L	.	8cc\L	.	.	.	.
16G\LL	.	8g/J	.	8bn\J	.	.	.	.
16A-\JJ	.	.	.	.	.	.	.	.
!	!	!LO:TX:a:t=P:problem:mixed beam	!	!LO:TX:a:t=P:problem:mixed beam	!	!	!	!
8Bn\L	.	8G/L	.	8G/L	.	.	.	.
8G\J	.	8een\J	.	8gg\J	.	.	.	.
=3	=3	=3	=3	=3	=3	=3	=3	=3
!LO:TX:a:t=P:problem:chorągiewka w lewą stronę	!	!	!	!	!	!	!	!
8c\	#	16ee-\LL	.	(16gg\LL	.	.	.	.
.	.	16ff\	.	16aa-\	.	.	.	.
8r	.	16ff\	.	16aa-\	.	.	.	.
.	.	16ee-\JJ	.	16gg\JJ)	.	.	.	.
8C/	#	16gg\LL	.	(16bb-\LL	.	.	.	.
.	.	16ff\	.	16aa-\	.	.	.	.
8r	.	16ff\	.	16aa-\	.	.	.	.
.	.	16ee-\JJ	.	16gg\JJ)	.	.	.	.
!	!	!LO:TX:a:t=P:problem:mixed beam	!	!	!	!	!	!
8F\L	.	8ff\L	.	8aa-\L	.	.	.	.
16F\L	.	8f/J	.	8ff\J	.	.	.	.
16G\JJ	.	.	.	.	.	.	.	.
8A-\L	6	4r	.	4r	.	.	.	.
8F\J	.	.	.	.	.	.	.	.
!	!	!	!	!LO:LB:g=original	!	!	!	!
=4	=4	=4	=4	=4	=4	=4	=4	=4
8B-\	.	16dd\LL	.	(16ff\LL	.	.	.	.
.	.	16ee-\	.	16gg\	.	.	.	.
8r	.	16ee-\	.	16gg\	.	.	.	.
.	.	16dd\JJ	.	16ff\JJ)	.	.	.	.
!LO:LB:g=original	!	!	!	!	!	!	!	!
8BB-/	.	16ff\LL	.	(16aa-\LL	.	.	.	.
.	.	16ee-\	.	16gg\	.	.	.	.
8r	.	16ee-\	.	16gg\	.	.	.	.
.	.	16dd\JJ	.	16ff\JJ)	.	.	.	.
!	!	!LO:TX:a:t=P:problem:mixed beam	!	!	!	!	!	!
8E-\L	.	8ee-\L	.	8gg\L	.	.	.	.
16E-\L	.	8e-/J	.	8ee-\J	.	.	.	.
16F\JJ	.	.	.	.	.	.	.	.
8G\L	.	8r	.	8r	.	.	.	.
8E-\J	.	8cc\	.	16gg\LL	.	.	.	.
.	.	.	.	16ee-\JJ	.	.	.	.
!	!	!LO:LB:g=original	!	!	!	!	!	!
=5	=5	=5	=5	=5	=5	=5	=5	=5
!LO:TX:a:t=P:problem:mixed beam	!	!	!	!	!	!	!	!
8G`\L	.	(16bn\LL	.	16dd\LL	.	0r	.	.
.	.	16cc\	.	16ee-\	.	.	.	.
8GG`/	.	16cc\	.	16ee-\	.	.	.	.
.	.	16b\JJ)	.	16dd\JJ	.	.	.	.
8GG`/	.	(16dd\LL	.	16ff\LL	.	.	.	.
.	.	16cc\	.	16ee-\	.	.	.	.
8GG`/J	.	16cc\	.	16ee-\	.	.	.	.
.	.	16b\JJ)	.	16dd\JJ	.	.	.	.
8GG`/L	.	(16b\LL	.	16dd\LL	.	.	.	.
.	.	16cc\	.	16ee-\	.	.	.	.
8GG`/	.	16cc\	.	16ee-\	.	.	.	.
.	.	16b\JJ)	.	16dd\JJ	.	.	.	.
8GG`/	.	(16dd\LL	.	16ff\LL	.	.	.	.
.	.	16cc\	.	16ee-\	.	.	.	.
8GG`/J	.	16cc\	.	16ee-\	.	.	.	.
.	.	16b\JJ)	.	16dd\JJ	.	.	.	.
=6	=6	=6	=6	=6	=6	=6	=6	=6
8BBn/L	7_ 5	4ff\	.	4aa-\	.	.	.	.
8BB/	.	.	.	.	.	.	.	.
8BB/	5	8r	.	8r	.	.	.	.
8C/J	.	8ee-\	.	8gg\	.	.	.	.
!	!	!LO:TX:a:t=P:problem:mixed beam	!LO:DY:a	!	!	!	!	!
8F\L	-	8cc\L	p	8aa-\L	.	.	.	.
16G\L	.	8e-/J	.	8cc\J	.	.	.	.
16A-\JJ	.	.	.	.	.	.	.	.
!LO:TX:a:t=P:problem:mixed beam	!	!	!	!	!	!	!	!
8G\L	.	8.e-/L	.	8.bn\L	.	.	.	.
8GG/J	.	.	.	.	.	.	.	.
.	.	16d/Jk	.	16b\Jk	.	.	.	.
=7	=7	=7	=7	=7	=7	=7	=7	=7
4C/	.	8c/L	.	8cc\L	.	4gg\	Placz	.
.	.	8c/	.	8ee-\J	.	.	.	.
!	!	!	!	!	!LO:DY:t=piano	!	!	!
!	!	!	!	!	!LO:DY:a	!LO:TX:a:t=P:problem:klamra łukowa:global	!	!
4r	.	8B/	.	16dd\LL	p	24ff\LL	{Placz}	.
.	.	.	.	.	.	24ee-\	.	.
.	.	.	.	16bn\	.	.	.	.
.	.	.	.	.	.	24dd\JJ	.	.
.	.	8c/J	.	16cc\	.	24ee-\LL	kto	.
.	.	.	.	.	.	24dd\	.	.
.	.	.	.	16a-X\JJ	.	.	.	.
.	.	.	.	.	.	24cc\JJ	.	.
!	!	!	!	!LO:LB:g=original	!	!	!	!
2r	.	8g/L	.	8g/L	.	4bn\	Zyw	.
.	.	16G/L	.	16G/L	.	.	.	.
.	.	16A-/JJ	.	16A-/JJ	.	.	.	.
.	.	8Bn/L	.	8Bn/L	.	4r	.	.
.	.	8c/J	.	8c/J	.	.	.	.
=8	=8	=8	=8	=8	=8	=8	=8	=8
!	!	!	!	!LO:TX:a:t=P:problem:mixed beam	!	!	!	!
2r	.	8g/L	.	8G/L 8g	.	4gg\	pat-	.
.	.	8c/	.	8ee-\J	.	.	.	.
.	.	8Bn/	.	16dd\LL	.	24ff\LL	-rząc	.
.	.	.	.	.	.	24ee-\	.	.
.	.	.	.	16bn\	.	.	.	.
.	.	.	.	.	.	24dd\JJ	.	.
.	.	8c/J	.	16cc\	.	24ee-\LL	na	.
.	.	.	.	.	.	24dd\	.	.
.	.	.	.	16a-\JJ	.	.	.	.
.	.	.	.	.	.	24cc\JJ	.	.
4r	.	8g/L	.	8g/L	.	4bn\	dziw	.
.	.	16G/L	.	8G/	.	.	.	.
.	.	16A-/JJ	.	.	.	.	.	.
8r	.	8Bn/L	.	8G/	.	4r	.	.
!	!	!	!	!LO:TX:a:t=P:problem:mixed beam	!	!	!	!
8C/	#	8c/J	.	8gg\J	.	.	.	.
=9	=9	=9	=9	=9	=9	=9	=9	=9
!	!	!	!	!	!LO:DY:t=for	!	!	!
!	!	!	!LO:DY:a	!	!LO:DY:a	!	!	!
8C/	#	16een\LL	f	16gg\LL	f	00r	.	.
.	.	16ff\	.	16aa-\	.	.	.	.
8r	.	16ff\	.	16aa-\	.	.	.	.
.	.	16ee\JJ	.	16gg\JJ	.	.	.	.
!	!	!LO:LB:g=original	!	!	!	!	!	!
8C/	.	16gg\LL	.	16bb-\LL	.	.	.	.
.	.	16ff\	.	16aa-\	.	.	.	.
8r	.	16ff\	.	16aa-\	.	.	.	.
.	.	16ee\JJ	.	16gg\JJ	.	.	.	.
!LO:LB:g=original	!	!	!	!	!	!	!	!
8C/	.	16een\LL	.	16gg\LL	.	.	.	.
.	.	16ff\	.	16aa-\	.	.	.	.
8r	.	16ff\	.	16aa-\	.	.	.	.
.	.	16ee\JJ	.	16gg\JJ	.	.	.	.
8C/	.	16gg\LL	.	16bb-\LL	.	.	.	.
.	.	16ff\	.	16aa-\	.	.	.	.
8r	.	16ff\	.	16aa-\	.	.	.	.
.	.	16ee\JJ	.	16gg\JJ	.	.	.	.
=10	=10	=10	=10	=10	=10	=10	=10	=10
8B-\	.	16dd\LL	.	16ff\LL	.	.	.	.
.	.	16ee-X\	.	16gg\	.	.	.	.
8r	.	16ee-\	.	16gg\	.	.	.	.
.	.	16dd\JJ	.	16ff\JJ	.	.	.	.
8BB-/	.	16ff\LL	.	16aa-\LL	.	.	.	.
.	.	16ee-\	.	16gg\	.	.	.	.
8r	.	16ee-\	.	16gg\	.	.	.	.
.	.	16dd\JJ	.	16ff\JJ	.	.	.	.
8BB-/	.	16dd\LL	.	16ff\LL	.	.	.	.
.	.	16ee-X\	.	16gg\	.	.	.	.
8r	.	16ee-\	.	16gg\	.	.	.	.
.	.	16dd\JJ	.	16ff\JJ	.	.	.	.
8BB-/	.	16ff\LL	.	16aa-\LL	.	.	.	.
.	.	16ee-\	.	16gg\	.	.	.	.
8r	.	16ee-\	.	16gg\	.	.	.	.
.	.	16dd\JJ	.	16ff\JJ	.	.	.	.
=11	=11	=11	=11	=11	=11	=11	=11	=11
8BBn/	5	16dd\LL	.	16ff\LL	.	.	.	.
.	.	16ff\	.	16aa-\	.	.	.	.
8r	.	16ff\	.	16aa-\	.	.	.	.
.	.	16ee-\JJ	.	16gg\JJ	.	.	.	.
!	!	!	!	!LO:LB:g=original	!	!	!	!
8C/	.	16ee-\LL	.	16gg\LL	.	.	.	.
.	.	16dd\	.	16ff\	.	.	.	.
8r	.	16dd\	.	16ff\	.	.	.	.
.	.	16cc\JJ	.	16ee-\JJ	.	.	.	.
8C/	.	16cc\LL	.	16ee-\LL	.	.	.	.
.	.	16bn\	.	16dd\	.	.	.	.
8r	.	16b\	.	16dd\	.	.	.	.
.	.	16a-X\JJ	.	16cc\JJ	.	.	.	.
!LO:TX:a:t=P:problem:mixed beam	!	!	!	!	!	!	!	!
8C/L	.	8a-/L	.	8cc\L	.	.	.	.
8G\J	#	16g/L	.	16bn\L	.	.	.	.
.	.	16g/JJ	.	16b\JJ	.	.	.	.
=12	=12	=12	=12	=12	=12	=12	=12	=12
8Bn\L	.	4ff\	.	4aa-\	.	.	.	.
8BBn/	.	.	.	.	.	.	.	.
8BB/	.	8r	.	8r	.	.	.	.
8C/J	.	16ee-\LL	.	8gg\	.	.	.	.
.	.	16dd\JJ	.	.	.	.	.	.
8F\L	.	8cc\L	.	8aa-\L	.	.	.	.
16G\L	.	16g\L	.	16b-\L	.	.	.	.
16A-\JJ	.	16f\JJ	.	16an\JJ	.	.	.	.
!LO:TX:a:t=P:problem:mixed beam	!	!	!	!	!	!	!	!
8G\L	4#	8.e-/L	.	8.bnt\L	.	.	.	.
8GG/J	.	.	.	.	.	.	.	.
.	.	16d/Jk	.	16b\Jk	.	.	.	.
!	!	!LO:LB:g=original	!	!	!	!	!	!
=13	=13	=13	=13	=13	=13	=13	=13	=13
!	!	!	!	!	!LO:DY:t=Pia	!	!	!
!	!	!	!LO:DY:a	!	!LO:DY:a	!	!	!
4C/	.	8d/L	p	8cc\L	p	4gg\	Placz	.
.	.	8c/	.	8ee-\J	.	.	.	.
4r	.	8Bn/	.	(16dd\LL	.	24ff\LL	{Placz}	.
.	.	.	.	.	.	24ee-\	.	.
.	.	.	.	16bn\)	.	.	.	.
.	.	.	.	.	.	24dd\JJ	.	.
.	.	8c/J	.	(16cc\	.	24ee-\LL	kto	.
.	.	.	.	.	.	24dd\	.	.
.	.	.	.	16a-X\JJ)	.	.	.	.
.	.	.	.	.	.	24cc\JJ	.	.
2r	.	8g/L	.	8g/L	.	4bn\	Żyw	.
.	.	16G/L	.	16G/L	.	.	.	.
.	.	16A-/JJ	.	16A-/JJ	.	.	.	.
.	.	8Bn/L	.	8Bn/L	.	4r	.	.
.	.	8c/J	.	8c/J	.	.	.	.
!	!	!	!	!	!	!LO:LB:g=original	!	!
=14	=14	=14	=14	=14	=14	=14	=14	=14
!LO:TX:a:t=P:problem:w źródle 2 takty	!	!	!	!	!	!	!	!
!LO:N:vis=0	!	!	!	!LO:TX:a:t=P:problem:mixed beam	!	!	!	!
1r	.	8g/L	.	8G/L 8g	.	4gg\	Pa-	.
.	.	8c/	.	8ee-\J	.	.	.	.
.	.	8Bn/	.	16ddX\LL	.	24ff\LL	-trząc	.
.	.	.	.	.	.	24ee-\	.	.
.	.	.	.	16bn\	.	.	.	.
.	.	.	.	.	.	24dd\JJ	.	.
.	.	8c/J	.	16cc\	.	24ee-\LL	na	.
.	.	.	.	.	.	24dd\	.	.
.	.	.	.	16a-\JJ	.	.	.	.
.	.	.	.	.	.	24cc\JJ	.	.
.	.	8g/L	.	8g/L	.	4bn\	dzẏw	.
.	.	16G/L	.	16G/L	.	.	.	.
.	.	16A-/JJ	.	16A-/JJ	.	.	.	.
!	!	!	!	!LO:LB:g=original	!	!	!	!
.	.	8Bn/L	.	8Bn/L	.	8r	.	.
.	.	16c/L	.	8G/J	.	8dd\	na	.
.	.	16B/JJ	.	.	.	.	.	.
!LO:LB:g=original	!	!	!	!	!	!	!	!
=15	=15	=15	=15	=15	=15	=15	=15	=15
!LO:TX:a:t=P:problem:mixed beam	!	!	!	!	!	!	!	!
8C/L	.	8c/L	.	8cc\L	.	8ee-\L	Żal	.
8C/	.	8G/	.	16bn\L	.	16dd\L	.	.
.	.	.	.	16a-X\JJ	.	16cc\JJ	.	.
8G\	#	8G/	.	8g/L	.	8bn\	ne-	.
8C/J	.	8G/J	.	8an/J	.	8cc\	-sły-	.
!LO:TX:a:t=P:problem:mixed beam	!	!	!	!	!	!	!	!
8G\L	.	8G/L	.	8b/L	.	(16dd\LL	-cha-	.
.	.	.	.	.	.	16cc\)	.	.
!	!	!LO:TX:a:t=P:problem:mixed beam	!	!	!	!	!	!
8GG/	.	8G/	.	8g'/	.	(16b\	.	.
.	.	.	.	.	.	16a-\JJ)	.	.
8GG/	.	8G/	.	8g'/	.	4g/	-ny	.
8GG/J	.	8bn\J	.	8dd/J	.	.	.	.
=16	=16	=16	=16	=16	=16	=16	=16	=16
8G\L	.	8cc\L	.	8ee-\L	.	1r	.	.
8Bn\	.	16bn\L	.	16dd\L	.	.	.	.
.	.	16a-X\JJ	.	16cc\JJ	.	.	.	.
8c\	.	8g/L	.	8bn\L	.	.	.	.
8B\J	6	8an/J	.	8cc\J	.	.	.	.
8B-X\L	6	8bn/L	.	16dd\LL	.	.	.	.
.	.	.	.	16cc\	.	.	.	.
8A-\J	6	8g/	.	16b\	.	.	.	.
.	.	.	.	16a-\JJ	.	.	.	.
16B-\LL	.	8G/	.	8g/L	.	.	.	.
16A-\	.	.	.	.	.	.	.	.
16B-\	.	8G/J	.	8G/J	.	.	.	.
16G\JJ	.	.	.	.	.	.	.	.
!	!	!LO:LB:g=original	!	!	!	!	!	!
=17	=17	=17	=17	=17	=17	=17	=17	=17
!	!	!LO:TX:a:t=P:problem:w rękopisie 2 takty	!	!LO:N:vis=0	!	!	!	!
!	!	!LO:N:vis=0	!	!LO:TX:a:t=P:problem:w rękopisie 2 takty	!	!	!	!
8F#X\L	#	1r	.	1r	.	8dd\	Ze	.
8D\	.	.	.	.	.	8dd\	żẏ-	.
8G\	.	.	.	.	.	8ee-\	-we-	.
8B-\J	-	.	.	.	.	8dd\	-go	.
!LO:TX:a:t=P:problem:mixed beam	!	!	!	!	!	!	!	!
8G\L	-	.	.	.	.	8dd\	Bo-	.
16BB-/L	.	.	.	.	.	8ff#X\	-ga	.
16C/JJ	.	.	.	.	.	.	.	.
8D/L	.	.	.	.	.	4gg\	ſyn	.
8DD/J	4#	.	.	.	.	.	.	.
!	!	!	!	!	!	!LO:LB:g=original	!	!
=18	=18	=18	=18	=18	=18	=18	=18	=18
!	!	!	!	!LO:TX:a:t=bis	!	!	!	!
8GG/L	.	16bb-\LL	.	16ddd\LL	.	16aa-\LL	na	.
.	.	16aa-\	.	16ccc\	.	16gg\JJ	.	.
8D`/	.	16aa-\	.	16ccc\	.	16ff#X\LL	ſmierc	.
.	.	16gg\JJ	.	16bb-\JJ	.	16ee-\JJ	.	.
8D`/	.	16gg\LL	.	16bb-\LL	.	16dd\LL	.	.
.	.	16ff#X\	.	16aan\	.	16cc\JJ	.	.
8D`/J	.	16ff#\	.	16aa\	.	16b-\LL	.	.
.	.	16gg\JJ	.	16bb-\JJ	.	16a-\JJ	.	.
8D`\L	.	8aa-\L	.	8ccc\L	.	16b-\LL	ſka-	.
.	.	.	.	.	.	16g\	.	.
8D`\	.	16gg\L	.	16bb-\L	.	16ee-\	.	.
.	.	16gg\JJ	.	16bb-\JJ	.	16g\JJ	.	.
8D`\	.	16gg\LL	.	16bb-\LL	.	4a-M\	-za-	.
.	.	16ff#X\J	.	16aan\J	.	.	.	.
8D`\J	.	8ff#\J	.	8aa\J	.	.	.	.
!LO:LB:g=original	!	!	!	!	!	!	!	!
=19	=19	=19	=19	=19	=19	=19	=19	=19
!	!	!LO:TX:a:t=P:problem:repetycja tt.18	!	!LO:TX:a:t=P:problem:repetycja tt.18	!	!	!	!
8D`/L	.	16bb-\LLyy	.	16ddd\LLyy	.	4g/	-ny	.
.	.	16aa-\yy	.	16ccc\yy	.	.	.	.
8D`/	.	16aa-\yy	.	16ccc\yy	.	.	.	.
.	.	16gg\JJyy	.	16bb-\JJyy	.	.	.	.
8D`/	.	16gg\LLyy	.	16bb-\LLyy	.	4r	.	.
.	.	16ff#X\yy	.	16aan\yy	.	.	.	.
8D`/J	.	16ff#\yy	.	16aa\yy	.	.	.	.
.	.	16gg\JJyy	.	16bb-\JJyy	.	.	.	.
8D`/L	.	8aa-\Lyy	.	8ccc\Lyy	.	2r	.	.
8D`/	.	16gg\Lyy	.	16bb-\Lyy	.	.	.	.
.	.	16gg\JJyy	.	16bb-\JJyy	.	.	.	.
8D`/	.	16gg\LLyy	.	16bb-\LLyy	.	.	.	.
.	.	16ff#\Jyy	.	16aan\Jyy	.	.	.	.
8D`/J	.	8ff#\Jyy	.	8aa\Jyy	.	.	.	.
=20	=20	=20	=20	=20	=20	=20	=20	=20
!	!	!	!	!	!	!LO:TX:a:t=P:problem:nadmiarowy pusty takt	!	!
8G\L	.	8gg\L	.	16bb-\LL	.	0.r	.	.
.	.	.	.	16gg\	.	.	.	.
8A-\J	6	16dd\L	.	16ff#X\	.	.	.	.
.	.	16cc\JJ	.	16ee-\JJ	.	.	.	.
!LO:TX:a:t=P:problem:mixed beam	!	!	!	!	!	!	!	!
16B-\LL	.	16b-X/LL	.	16dd\LL	.	.	.	.
16c\	.	16a-/	.	16cc\	.	.	.	.
16d\	.	16g/	.	16b-\	.	.	.	.
16D/JJ	4#	16f#X/JJ	.	16a-\JJ	.	.	.	.
!LO:TX:a:t=P:problem:mixed beam	!	!LO:TX:a:t=P:problem:mixed beam	!	!LO:LB:g=original	!	!	!	!
8G\L	.	8g/L	.	8g/L	.	.	.	.
8C/	.	16ee-\L	.	16gg\L	.	.	.	.
.	.	16ff\JJ	.	16aa-\JJ	.	.	.	.
!	!	!LO:TX:a:t=P:problem:mixed beam	!	!LO:TX:a:t=P:problem:mixed beam	!	!	!	!
8C/	.	8ee-\L	.	8gg\L	.	.	.	.
8G\J	#	8g/J	.	8bn/J	.	.	.	.
=21	=21	=21	=21	=21	=21	=21	=21	=21
!	!	!LO:TX:a:t=P:problem:mixed beam	!	!	!	!	!	!
8c\L	.	8e-/L	.	8cc\L	.	.	.	.
8B-\	.	16dd\L	.	16ff\L	.	.	.	.
.	.	16ee-\JJ	.	16gg\JJ	.	.	.	.
!	!	!LO:TX:a:t=P:problem:mixed beam	!	!LO:TX:a:t=P:problem:mixed beam	!	!	!	!
8B-\	.	8dd\L	.	8ff\L	.	.	.	.
8F\J	.	8f/J	.	8an/J	.	.	.	.
8BB-/L	.	8d/L	.	8b-\L	.	.	.	.
16G\L	6	8g/J	.	8ee-\	.	.	.	.
16A-\JJ	.	.	.	.	.	.	.	.
8B-\L	.	8dd\L	.	8ff\	.	.	.	.
8E-\J	.	8ee-\J	.	8gg\J	.	.	.	.
=22	=22	=22	=22	=22	=22	=22	=22	=22
8F\L	-	4ff\	.	4aa-X\	.	.	.	.
16F\L	.	.	.	.	.	.	.	.
16E-\JJ	.	.	.	.	.	.	.	.
8D/L	6	16r	.	16r	.	.	.	.
.	.	16ff\LL	.	16aa-\LL	.	.	.	.
8BB-/J	.	16ee-\	.	16gg\	.	.	.	.
.	.	16dd\JJ	.	16ff\JJ	.	.	.	.
!LO:TX:a:t=P:problem:mixed beam	!	!LO:TX:a:t=P:problem:mixed beam	!	!	!	!	!	!
8E-\L	.	8ee-\L	.	8gg\L	.	.	.	.
8G\	.	8g/J	.	8ee-\J	.	.	.	.
8B-\	.	8.b-/L	.	8.ffT\L	.	.	.	.
8BB-/J	4	.	.	.	.	.	.	.
.	3	16a-X/Jk	.	16ee-\Jk	.	.	.	.
!LO:LB:g=original	!	!	!	!	!	!	!	!
=23	=23	=23	=23	=23	=23	=23	=23	=23
!	!	!	!LO:DY:t=Piano	!	!LO:DY:t=pia	!	!	!
!	!	!	!LO:DY:a	!	!LO:DY:a	!	!	!
8E-\L	5:	8g/L	p	8ee-\L	p	4ee-\	ſtrasz-	.
8E-\	-	8g/	.	8b-`\	.	.	.	.
8E-\	7_ 5_	8g/	.	8b-`\	.	4dd-X\	-nẏ	.
8E-\J	.	8g/J	.	8b-`\J	.	.	.	.
!	!	!LO:TX:a:t=P:problem:repetycja tt.18	!	!	!	!	!	!
8E-\L	.	8g/L	.	8b-`\L	.	4dd-\	to	.
8E-\	.	8g/	.	8b-`\	.	.	.	.
8A-\	3	8a-X/	.	8cc`\	.	4cc\	ſąd	.
8A-\J	.	8a-/J	.	8cc`\J	.	.	.	.
=24	=24	=24	=24	=24	=24	=24	=24	=24
8F\L	n	8an/L	.	8cc`\L	.	4ff\	{ſtrasz-	.
8F\	.	8a/	.	8cc`\	.	.	.	.
8F\	7_ 5_	8a/	.	8cc`\	.	4ee-\	-nẏ	.
8F\J	.	8a/J	.	8cc`\J	.	.	.	.
8F\L	.	8a/L	.	8cc`\L	.	4ee-\	to	.
8F\	.	8a/	.	8cc`\	.	.	.	.
!LO:TX:a:t=P:problem:mixed beam	!	!	!	!	!	!	!	!
8B-\	x	8b-/	.	8dd`\	.	4dd\	ſąd}	.
8BB-/J	.	8b-/J	.	8dd`\J	.	.	.	.
=25	=25	=25	=25	=25	=25	=25	=25	=25
!LO:TX:a:t=1	!	!	!	!	!	!	!	!
!LO:TX:a:T=P:problem:1 pod klamrą łukową	!	!	!	!	!	!	!	!
1r	.	8B-/L	.	8B-'/L	.	8r	.	.
.	.	8B-/	.	8B-'/	.	16dd\LL	Zło	.
.	.	.	.	.	.	16ee-\JJ	.	.
!	!	!	!	!	!	!LO:LB:g=original	!	!
.	.	8B-/	.	8B-'/	.	8ff\	tra-	.
.	.	8B-/J	.	8B-'/J	.	8a-X\	-my	.
.	.	8B-/L	.	8B-'/L	.	8a-\	w	.
.	.	8B-/	.	8B-'/	.	16dd\LL	rząd	.
.	.	.	.	.	.	16ee-\JJ	.	.
.	.	8B-/	.	8B-'/	.	8ff\	Je-	.
.	.	8B-/J	.	8B-'/J	.	8f/	-zu-	.
!	!	!	!	!LO:LB:g=original	!	!	!	!
=26	=26	=26	=26	=26	=26	=26	=26	=26
8E-\L	.	4B-/	.	4B-/	.	8g\L	-ſa	.
!LO:TX:a:t=P:problem:mixed beam	!	!	!	!	!	!	!	!
8G\	.	.	.	.	.	8a-\J	po-	.
8B-\	.	4r	.	4r	.	8.g/L	-li-	.
8BB-/J	4	.	.	.	.	.	.	.
.	3	.	.	.	.	16fM/Jk	-czo-	.
!	!	!	!LO:DY:a	!	!	!	!	!
8E-\L	.	8g/L	f	8b-`\L	.	4e-/	-no	.
8E-\	.	8g/	.	8b-`\	.	.	.	.
8E-\	.	8g/	.	8b-`\	.	4r	.	.
8E-\J	.	8g/J	.	8b-`\J	.	.	.	.
=27	=27	=27	=27	=27	=27	=27	=27	=27
8D\L	6|_ 4_	8g/L	.	8bn\L	.	0r	.	.
8D\	.	8g/	.	8b\	.	.	.	.
8D\	.	8g/	.	8b\	.	.	.	.
8D\J	.	8g/J	.	8b\J	.	.	.	.
!	!	!	!	!LO:TX:a:t=P:problem:klamra łukowa nad triolą:global	!	!	!	!
8G\L	7_ 5_	8bbn\L	.	24b\LL	.	.	.	.
.	.	.	.	24cc\	.	.	.	.
.	.	.	.	24dd\JJ	.	.	.	.
8G\	.	8bb\	.	24dd\LL	.	.	.	.
.	.	.	.	24ee-\	.	.	.	.
.	.	.	.	24ff\JJ	.	.	.	.
8G\	.	8bb\	.	24ff\LL	.	.	.	.
.	.	.	.	24ee-\	.	.	.	.
.	.	.	.	24dd\JJ	.	.	.	.
8G\J	.	8bb\J	.	24dd\LL	.	.	.	.
.	.	.	.	24cc\	.	.	.	.
.	.	.	.	24b\JJ	.	.	.	.
=28	=28	=28	=28	=28	=28	=28	=28	=28
8G\L	x	8bb-\L	.	24b-/LL	.	.	.	.
.	.	.	.	24a-/	.	.	.	.
.	.	.	.	24g/JJ	.	.	.	.
8G\	.	8bb-\	.	24f/LL	.	.	.	.
.	.	.	.	24e-/	.	.	.	.
.	.	.	.	24d/JJ	.	.	.	.
8G\	.	8bb-\	.	24d/LL	.	.	.	.
.	.	.	.	24c/	.	.	.	.
.	.	.	.	24B-/JJ	.	.	.	.
8G\J	.	8bb-\J	.	24B-/LL	.	.	.	.
.	.	.	.	24A-/	.	.	.	.
.	.	.	.	24G/JJ	.	.	.	.
!LO:LB:g=original	!	!	!	!	!	!	!	!
!LO:TX:a:t=P:problem:mixed beam	!	!	!	!LO:TX:a:t=P:problem:mixed beam	!	!	!	!
8G\L	.	8bb-\L	.	8G/L	.	.	.	.
8C/J	.	8ee-X\	.	8gg\	.	.	.	.
!LO:TX:a:t=P:problem:mixed beam	!	!	!	!	!	!	!	!
8C/L	.	8ee-\	.	8gg\	.	.	.	.
8G\J	7	8dd\J	.	8ff\J	.	.	.	.
=29	=29	=29	=29	=29	=29	=29	=29	=29
8E-\L	.	8cc\L	.	(16ee-\LL	.	2r	.	.
.	.	.	.	16dd\)	.	.	.	.
!LO:TX:a:t=P:problem:mixed beam	!	!	!	!	!	!	!	!
8F\	.	16g\L	.	(16ff\	.	.	.	.
.	.	16f\JJ	.	16cc\JJ)	.	.	.	.
8G\	.	8.e-/L	.	8.bn\L	.	.	.	.
8GG/J	4	.	.	.	.	.	.	.
.	3	16d/Jk	.	16b\Jk	.	.	.	.
!	!	!	!LO:DY:t=piano	!	!LO:DY:t=pia	!	!	!
!	!	!	!LO:DY:a	!LO:TX:a:t=P:problem:mixed beam	!LO:DY:a	!	!	!
4C/	.	8c/L	p	8cc\L	p	4cc\	y	.
.	.	8c/	.	8c/	.	.	.	.
.	.	.	.	.	.	16qqdd/LL	.	.
.	.	.	.	.	.	16qqee-/JJ	.	.
4r	.	8g/	.	8g/	.	4dd\	tak	.
.	.	8G/J	.	8G/J	.	.	.	.
!	!	!LO:LB:g=original	!	!	!	!	!	!
=30	=30	=30	=30	=30	=30	=30	=30	=30
0r	.	16G/LL	.	16G/LL	.	8r	.	.
.	.	16g/	.	16g/	.	.	.	.
.	.	16G/	.	16G/	.	16dd\LL	Ze	.
.	.	16g/JJ	.	16g/JJ	.	16ee-\JJ	.	.
.	.	8G/L	.	8G/L	.	16ff\LL	człek	.
.	.	.	.	.	.	16ee-\JJ	.	.
.	.	8g/J	.	8g/J	.	16dd\LL	Za-	.
.	.	.	.	.	.	16cc\JJ	.	.
!	!	!	!	!LO:LB:g=original	!	!	!	!
.	.	8c/L	.	8c/L	.	8cc\	-wi-	.
.	.	8g/	.	8g/J	.	8bn\	-nił	.
.	.	8G/	.	8G/L	.	4r	.	.
.	.	8g/J	.	8g/J	.	.	.	.
!	!	!	!	!	!	!LO:LB:g=original	!	!
=31	=31	=31	=31	=31	=31	=31	=31	=31
.	.	16G/LL	.	16G/LL	.	8r	.	.
.	.	16g/	.	16g/	.	.	.	.
.	.	16G/	.	16G/	.	16dd\LL	Ze	.
.	.	16g/JJ	.	16g/JJ	.	16ee-\JJ	.	.
.	.	8G/L	.	8G/L	.	16ff\LL	człek	.
.	.	.	.	.	.	16ee-\JJ	.	.
.	.	8g/J	.	8g/J	.	16dd\LL	za-	.
.	.	.	.	.	.	16cc\JJ	.	.
.	.	8c/L	.	8c/L	.	8cc\	-wi-	.
.	.	8g/J	.	8g/J	.	8bn\	-nił	.
.	.	16G/LL	.	16G/LL	.	4r	.	.
.	.	16g/	.	16g/	.	.	.	.
.	.	16G/	.	16G/	.	.	.	.
.	.	16g/JJ	.	16g/JJ	.	.	.	.
=32	=32	=32	=32	=32	=32	=32	=32	=32
2r	.	4e-X/	.	4e-X/	.	4gg\	Bo-	.
.	.	4f/	.	4f/	.	32aa-\LLL	.	.
.	.	.	.	.	.	32gg\	.	.
.	.	.	.	.	.	32ff\	.	.
.	.	.	.	.	.	32ee-\	.	.
.	.	.	.	.	.	32dd\	.	.
.	.	.	.	.	.	32cc\JJJ	.	.
.	.	.	.	.	.	8.bn\	-ga	.
8C/L	.	8g/L	.	8g\L	.	.	.	.
8E-/	.	8g/J	.	16cc\L	.	16cc\LL	za-	.
.	.	.	.	16dd\JJ	.	16dd\JJ	.	.
8G/	.	8.g/L	.	8.ee-\L	.	8.ee-\	-wie-	.
8GG/J	.	.	.	.	.	.	.	.
.	.	16f/Jk	.	16dd\Jk	.	16dd\	-szo-	.
=33	=33	=33	=33	=33	=33	=33	=33	=33
*	*	*	*	*2\right	*	*	*	*
2C/	.	2e-/	.	2cc\	.	8cc\	.	.
.	.	.	.	.	.	8c/	-no	.
.	.	.	.	.	.	4r	.	.
2r	.	2r	.	2r	.	2r	.	.
!LO:PB:g=original	!	!LO:PB:g=original	!	!LO:PB:g=original	!	!LO:PB:g=original	!	!
=34||	=34||	=34||	=34||	=34||	=34||	=34||	=34||	=34||
*>B	*	*>B	*	*>B	*	*>B	*	*
*k[b-e-a-]	*	*	*	*	*	*	*	*
!LO:TX:a:t=2	!	!LO:TX:a:t=2	!	!LO:TX:a:t=2	!	!LO:TX:a:t=P:problem:w rękopisie 8 taktów pauz	!	!
!	!	!LO:TX:b:t=Ah	!	!LO:TX:b:t=Ah me ſerce	!	!	!	!
8E-\L	.	8g/L	.	8b-\L	.	1r	.	.
8E-\	.	8g/	.	8ee-\	.	.	.	.
8E-\	.	8g/	.	8ee-\	.	.	.	.
8E-\J	.	8g/J	.	8b-\J	.	.	.	.
8E-\L	6 4	8a-/L	.	8cc\L	.	.	.	.
8E-\	5_ 3_	8g/	.	8b-\	.	.	.	.
8E-\	.	8g/	.	8b-\	.	.	.	.
8E-\J	.	8g/J	.	8b-\J	.	.	.	.
=35	=35	=35	=35	=35	=35	=35	=35	=35
!	!	!	!LO:DY:t=piano	!	!	!	!	!
!	!	!	!LO:DY:a	!	!	!	!	!
8E-\L	5_ 3_	8g/L	p	8b-\L	.	4r	.	.
!	!	!	!	!	!LO:DY:t=pia	!	!	!
!	!	!	!	!	!LO:DY:a	!	!	!
8E-\	.	8g/	.	8ee-\	p	.	.	.
8E-\	x	8g/	.	8ee-\	.	4ee-\	Ach	U-
8E-\J	.	8g/J	.	8b-\J	.	.	.	.
8E-\L	6 4	8a-/L	.	8cc\L	.	4dd-X\	ach	.
8E-\	5_ 3_	8g/	.	8b-\	.	.	.	.
8E-\	.	8g/	.	8b-\	.	4cc\	{ach}	-derz-
8E-\J	.	8g/J	.	8b-\J	.	.	.	.
=36	=36	=36	=36	=36	=36	=36	=36	=36
!	!	!	!	!	!LO:DY:t=for	!	!	!
!	!	!	!	!	!LO:DY:a	!	!	!
8BB-/L	5_	8f/L	.	16b-\LL	f	4r	.	.
.	.	.	.	16cc\	.	.	.	.
8BB-/	.	16b-/L	.	16dd\	.	.	.	.
.	.	16cc/JJ	.	16ee-\JJ	.	.	.	.
8BB-/	.	8dd\L	.	8ff\L	.	4ff\	Ah	U-
8BB-/J	.	16dd\L	.	8b-\J	.	.	.	.
.	.	16ee-\JJ	.	.	.	.	.	.
8BB-/L	7 5	8ff\L	.	8aa-\L	.	4ee-\	{Ah	.
8BB-/	6 4	8ee-\	.	8gg\	.	.	.	.
8BB-/	6 4	8ee-\	.	8gg\	.	4ddn\	Ah}	-derz
8BB-/J	5	8dd\J	.	8ff\J	.	.	.	.
=37	=37	=37	=37	=37	=37	=37	=37	=37
!	!	!	!	!	!LO:DY:t=pia	!	!	!
!	!	!	!	!	!LO:DY:a	!	!	!
8BB-/L	5_	8dd\L	.	16b-\LL	p	8r	.	.
.	.	.	.	16cc\	.	.	.	.
8BB-/	.	16b-\L	.	16dd\	.	8ff\	Ach	u-
.	.	16cc\JJ	.	16ee-\JJ	.	.	.	.
!	!	!	!	!LO:LB:g=original	!	!	!	!
8BB-/	.	8dd\L	.	8ff\L	.	8ff\	{Ach}	-derz
8BB-/J	.	16dd\L	.	8b-\J	.	8gg\	me	w
.	.	16ee-\JJ	.	.	.	.	.	.
8BB-/L	7 5	8ff\L	.	8aa-\L	.	8aa-\	ſer-	o-
8BB-/	6 4	8ee-\	.	8gg\	.	8ff\	-ce	-po-
8BB-/	6 4	8ee-\	.	8gg\	.	8gg\L	Ach	-kę
8BB-/J	5 3	8dd\J	.	8ff\J	.	8ee-\J	.	.
!LO:LB:g=original	!	!LO:LB:g=original	!	!	!	!	!	!
=38	=38	=38	=38	=38	=38	=38	=38	=38
8BB-/L	5_	8dd\L	.	8ff\L	.	4ff\	Ach	Ach
8BB-/	.	8dd\	.	8bb-\	.	.	.	.
8BB-/	.	8dd\	.	8bb-\	.	4r	.	.
8BB-/J	.	8dd\J	.	8ff\J	.	.	.	.
8BB-/L	6 4	8ee-\L	.	8gg\L	.	4ff\	{Ach}	{ach}
8BB-/	5_ 3_	8dd\	.	8ff\	.	.	.	.
8BB-/	.	8dd\	.	8ff\	.	4r	.	.
8BB-/J	.	8dd\J	.	8ff\J	.	.	.	.
!	!	!	!	!	!	!LO:LB:g=original	!	!
=39	=39	=39	=39	=39	=39	=39	=39	=39
8BB-/L	x	8dd\L	.	8ff\L	.	8r	.	.
8BB-/	.	8dd\	.	8bb-\	.	8ff\	Ach	U-
8BB-/	.	8dd\	.	8bb-\	.	8ff\	ach	-derz
8BB-/J	.	8dd\J	.	8ff\J	.	8gg\	me	-w
8BB-/L	6 4	8ee-\L	.	8gg\L	.	8aa-\L	ſer-	o-
8BB-/	5_ 3_	8dd\	.	8ff\	.	8ff\J	.	-po-
8BB-/	.	8dd\	.	8ff\	.	8gg\L	-ce	-kę
8BB-/J	.	8dd\J	.	8ff\J	.	8ff\J	.	.
=40	=40	=40	=40	=40	=40	=40	=40	=40
8E-\L	x	8ee-\L	.	8gg\L	.	8ff\L	ot-	o
8BB-\	.	8dd\	.	8ff\	.	16ee-\L	.	.
.	.	.	.	.	.	16dd\JJ	.	.
8BB-\	.	8dd\	.	8ff\	.	16ee-\LL	-war-	moy
.	.	.	.	.	.	16dd\	.	.
8C\J	.	8cc\J	.	8ee-\J	.	16cc\	.	.
.	.	.	.	.	.	16b-\JJ	.	.
8AAn/L	6 3	8cc\L	.	8ee-\L	.	8an\	-ty	Je-
8BB-/	.	8b-\	.	8dd\	.	16b-\LL	ka-	-zu
.	.	.	.	.	.	16cc\JJ	.	.
8BB-/	.	8b-\	.	8dd\	.	8.dd\L	-mie-	pra-
8C/J	6|	8a-\J	.	8cc\J	.	.	.	.
.	.	.	.	.	.	16cc\Jk	.	.
=41	=41	=41	=41	=41	=41	=41	=41	=41
8C/L	.	8e-/L	.	8cc/L	.	8b-\	-niu	-wy
16D/L	.	8d/	.	8b-/	.	8r	.	.
16E-/JJ	.	.	.	.	.	.	.	.
!LO:TX:a:t=P:problem:mixed beam	!	!	!	!	!	!	!	!
8F\L	4	8d/	.	8b-/	.	4r	.	.
8FF/J	n	8c/J	.	8an/J	.	.	.	.
!	!	!	!	!LO:LB:g=original	!	!	!	!
8BB-/L	.	8d/L	.	8b-\L	.	2r	.	.
8BB-/	.	8d/	.	8b-\	.	.	.	.
8BB-/	.	8d/	.	8b-\	.	.	.	.
8BB-/J	.	8d/J	.	8b-\J	.	.	.	.
=42	=42	=42	=42	=42	=42	=42	=42	=42
!	!	!	!	!	!LO:DY:t=pia	!	!	!
!	!	!	!LO:DY:a	!	!LO:DY:a	!	!	!
8E-\L	7_ 5_	8g/L	p	8b-\L	p	8r	.	.
8E-\	.	8g/	.	8ee-\	.	8ff\	nie-	nieh
8E-\	.	8g/	.	8ee-\	.	8ff\	-po-	wy-
!	!	!	!	!	!	!	!	!LO:TX:a:t=P:problem:niewyraźny tekst
8E-\J	.	8g/J	.	8b-\J	.	8gg\	-ru-	-p(rze)-
8E-\L	.	8g/L	.	8dd-X\L	.	8aa-\L	-szo-	-nie
8E-\	x	8g/	.	16dd-\L	.	8ff\J	.	.
.	.	.	.	16dd-\JJ	.	.	.	.
8A-\	.	8a-X/	.	8cc\L	.	8gg\L	-nÿ	Zal
8A-\J	.	8a-/J	.	8cc\J	.	8ee-\J	.	.
!LO:LB:g=original	!	!LO:LB:g=original	!	!	!	!LO:LB:g=original	!	!
=43	=43	=43	=43	=43	=43	=43	=43	=43
8F\L	5 n	8an/L	.	8cc\L	.	8ff\L	nad	nad
8F\	.	8a/	.	8ff\	.	16ee-\L	.	.
.	.	.	.	.	.	16dd\JJ	.	.
8F\	.	8a/	.	8ff\	.	16ee-\LL	Bo-	to-
.	.	.	.	.	.	16dd\	.	.
8F\J	.	8a/J	.	8cc\J	.	16cc\	.	.
.	.	.	.	.	.	16b-\JJ	.	.
8F\L	7 5	8a/L	.	8ee-\L	.	8an\	-ga	-bą
8F\	.	8a/	.	8ee-\	.	16b-\LL	ka-	krwa-
.	.	.	.	.	.	16cc\JJ	.	.
8B-\	.	8b-/	.	8dd\	.	8.dd\L	-mie-	.
8B-\J	.	8b-/J	.	8dd\J	.	.	.	.
.	.	.	.	.	.	16cc\Jk	.	.
=44	=44	=44	=44	=44	=44	=44	=44	=44
8BB-/L	5	8b-\L	.	8b-\L	.	4b-\	-niu	-wy
8BB-/	.	8dd\	.	8ff\	.	.	.	.
8BB-/	6	8dd\	.	8ff\	.	4r	.	.
8BB-/J	.	8ee-\J	.	8gg\J	.	.	.	.
8BB-/L	7:	8ff\L	.	8aa-\L	.	2r	.	.
8BB-/	.	8dd\	.	8ff\	.	.	.	.
8BB-/	6	8ee-\	.	8gg\	.	.	.	.
8BB-/J	.	8g\J	.	8ee-\J	.	.	.	.
=45	=45	=45	=45	=45	=45	=45	=45	=45
!	!	!	!	!LO:TX:a:t=P:problem:mixed beam	!	!	!	!
8BB-'/L	.	8a-X/L	.	8ff\L	.	00r	.	.
!	!	!	!	!	!LO:DY:t=for	!	!	!
8BB-'/	.	8d/	.	8f/	f	.	.	.
8BB-'/	.	8d/	.	8f/	.	.	.	.
8BB-'/J	.	8e-/J	.	8g/J	.	.	.	.
!	!	!	!	!LO:LB:g=original	!	!	!	!
8BB-'/L	.	8f/L	.	8a-/L	.	.	.	.
8BB-'/	.	8d/	.	8f/	.	.	.	.
8BB-'/	.	8e-/	.	8g/	.	.	.	.
8BB-'/J	.	8g/J	.	8e-/J	.	.	.	.
=46	=46	=46	=46	=46	=46	=46	=46	=46
!	!	!	!	!LO:TX:a:t=P:problem:mixed beam	!	!	!	!
8BB-/L	5:	8b-\L	.	8f/L	.	.	.	.
8BB-/	.	8dd\	.	8ff\	.	.	.	.
8BB-/	6	8dd\	.	8ff\	.	.	.	.
8BB-/J	.	8ee-\J	.	8gg\J	.	.	.	.
8BB-/L	7:	8ff\L	.	8aa-\L	.	.	.	.
8BB-/	.	8dd\	.	8ff\	.	.	.	.
8BB-/	6	8ee-\	.	8gg\	.	.	.	.
8BB-/J	.	8g\J	.	8ee-\J	.	.	.	.
!	!	!LO:LB:g=original	!	!	!	!	!	!
=47	=47	=47	=47	=47	=47	=47	=47	=47
8BB-/L	.	8b-\L	.	8ff\L	.	.	.	.
8BB-/	.	8b-\	.	8dd\J	.	.	.	.
8AAn/	6	8cc\	.	16ee-\LL	.	.	.	.
.	.	.	.	16dd\	.	.	.	.
8AA/J	.	8an\J	.	16cc\	.	.	.	.
.	.	.	.	16b-\JJ	.	.	.	.
8F\L	n	8f/L	.	8an\L	.	.	.	.
8F\	.	8f/	.	16b-\L	.	.	.	.
.	.	.	.	16cc\JJ	.	.	.	.
!LO:TX:a:t=P:problem:mixed beam	!	!	!	!	!	!	!	!
8F\	.	8b-/	.	8.dd\L	.	.	.	.
8FF/J	3n	8an/J	.	.	.	.	.	.
.	.	.	.	16cc\Jk	.	.	.	.
!LO:LB:g=original	!	!	!	!	!	!	!	!
=48	=48	=48	=48	=48	=48	=48	=48	=48
8BB-/L	.	8b-\L	.	8b-\L	.	.	.	.
8BB-/	.	8gg\	.	8bb-\	.	.	.	.
8BB-/	.	8gg\	.	8bb-\	.	.	.	.
8BB-/J	7-:	8ff\J	.	8aan\J	.	.	.	.
8BB-/L	.	8ff\L	.	8aa\L	.	.	.	.
8BB-/	.	8ee-\	.	8gg\	.	.	.	.
8BB-/	6 4	8ee-\	.	8gg\	.	.	.	.
8BB-/J	5 3	8dd\J	.	8ff\J	.	.	.	.
!	!	!	!	!LO:LB:g=original	!	!	!	!
=49	=49	=49	=49	=49	=49	=49	=49	=49
!	!	!LO:TX:a:t=P:problem:mixed beam	!	!	!	!LO:TX:a:t=P:problem:w rękopisie 4 takty pauzy	!	!
4BB-/	.	8dd\L	.	8ff\L	.	1ryy	.	.
.	.	8B-/	.	8dd\	.	.	.	.
4r	.	8B-/	.	8dd\	.	.	.	.
.	.	8B-/J	.	8ee-\J	.	.	.	.
2r	.	8B-/L	.	8ff\L	.	.	.	.
.	.	8B-/	.	8dd\	.	.	.	.
.	.	8c/	.	8ee-\	.	.	.	.
.	.	8c/J	.	8cc\J	.	.	.	.
=50	=50	=50	=50	=50	=50	=50	=50	=50
2r	.	8B-/L	.	8dd\L	.	1ryy	.	.
.	.	8B-/	.	8b-\	.	.	.	.
.	.	8f/	.	8cc\	.	.	.	.
.	.	8f/J	.	8an\J	.	.	.	.
8F/L	n	4f/	.	4f/	.	.	.	.
8F/	.	.	.	.	.	.	.	.
8F/	4	4r	.	4r	.	.	.	.
!LO:TX:a:t=P:problem:mixed beam	!	!	!	!	!	!	!	!
8FF\J	3	.	.	.	.	.	.	.
=51	=51	=51	=51	=51	=51	=51	=51	=51
8BB-/L	.	8dd\L	.	8b-\L	.	1ryy	.	.
8BB-/	.	8dd\	.	8bb-\	.	.	.	.
8BB-/	.	8dd\	.	8bb-\	.	.	.	.
8BB-/J	.	8dd\J	.	8ff\J	.	.	.	.
8BB-/L	6 4	8ee-\L	.	8gg\L	.	.	.	.
8BB-/	5_ 3_	8dd\	.	8ff\	.	.	.	.
8BB-/	.	8dd\	.	8ff\	.	.	.	.
8BB-/J	.	8dd\J	.	8ff\J	.	.	.	.
!	!	!LO:LB:g=original	!	!	!	!	!	!
=52	=52	=52	=52	=52	=52	=52	=52	=52
8BB-/L	x	8dd\L	.	8ff\L	.	1ryy	.	.
8BB-/	.	8dd\	.	8bb-\	.	.	.	.
8BB-/	.	8dd\	.	8bb-\	.	.	.	.
8BB-/J	.	8dd\J	.	8ff\J	.	.	.	.
8BB-/L	6 4	8ee-\L	.	8gg\L	.	.	.	.
8BB-/	5 3	8dd\	.	8ff\	.	.	.	.
8BB-/	.	8dd\	.	8ff\	.	.	.	.
8BB-/J	.	8dd\J	.	8ff\J	.	.	.	.
=53	=53	=53	=53	=53	=53	=53	=53	=53
8F\L	n	8an/L	.	16f/LL	.	1ryy	.	.
.	.	.	.	16g/	.	.	.	.
8F\	.	16f/L	.	16an/	.	.	.	.
.	.	16g/JJ	.	16bn/JJ	.	.	.	.
8F\	.	8a/L	.	8cc/L	.	.	.	.
8F\J	.	16a/L	.	8f/J	.	.	.	.
.	.	16b-/JJ	.	.	.	.	.	.
!	!	!	!	!LO:LB:g=original	!	!	!	!
8F\L	7	8cc\L	.	8ee-\L	.	.	.	.
8F\	6 4:	8b-\	.	8dd\	.	.	.	.
8F\	6 x	8b-\	.	8dd\	.	.	.	.
8F\J	5 3	8an\J	.	8cc\J	.	.	.	.
!LO:LB:g=original	!	!	!	!	!	!	!	!
=54	=54	=54	=54	=54	=54	=54	=54	=54
8F\L	.	8a-/L	.	16f/LL	.	1ryy	.	.
.	.	.	.	16g/	.	.	.	.
8F\	.	16f/L	.	16an/	.	.	.	.
.	.	16g/JJ	.	16bn/JJ	.	.	.	.
8F\	.	8a-/L	.	8cc\L	.	.	.	.
8F\J	.	16a-/L	.	8f\J	.	.	.	.
.	.	16b-/JJ	.	.	.	.	.	.
8F\L	7 5	8cc\L	.	8ee-\L	.	.	.	.
8F\	6 4	8b-\	.	8dd\	.	.	.	.
8F\	6 4	8b-\	.	8dd\	.	.	.	.
8F\J	5 n	8an\J	.	8cc\J	.	.	.	.
=55	=55	=55	=55	=55	=55	=55	=55	=55
8F\L	6 4	8b-\L	.	8dd\L	.	1ryy	.	.
8F\	5_ 3_n	8f\	.	16cc\L	.	.	.	.
.	.	.	.	16b-\JJ	.	.	.	.
8F\	.	8f\	.	8cc\L	.	.	.	.
8F\J	.	8f\J	.	8an\J	.	.	.	.
8BB-/L	x	8d/L	.	8b-\L	.	.	.	.
8BB-/	.	8d/	.	8b-\	.	.	.	.
8BB-/	.	8d/	.	8b-\	.	.	.	.
8BB-/J	.	8d/J	.	8b-\J	.	.	.	.
=56	=56	=56	=56	=56	=56	=56	=56	=56
!	!	!	!	!	!LO:DY:a	!	!	!
!	!	!	!	!	!LO:DY:t=piano	!	!	!
8E-\L	.	8g/L	.	8b-\L	p	8b-\L	Ję-	Ach
8E-\	.	8g/	.	8b-\	.	8ee-\J	.	.
8E-\	.	8g/	.	8b-\	.	8ee-\	-czy	{Ach}
8E-\J	7-_	8g/J	.	8b-\J	.	8dd-X\	ſtwo-	ach
8E-\L	.	8g/L	.	8b-\L	.	8dd-\L	-rze-	.
8E-\	.	8a-X/	.	8cc\	.	8cc\J	.	{ach}
8A-\	3	8a-/	.	8cc\	.	4cc\	-nie	.
8A-\J	.	8a-/J	.	8cc\J	.	.	.	.
!	!	!LO:LB:g=original	!	!	!	!	!	!
=57	=57	=57	=57	=57	=57	=57	=57	=57
8F\L	.	8an/L	.	8cc\L	.	8cc\L	Ję-	ach
8F\	.	8a/	.	8cc\	.	8ff\J	.	.
8F\	.	8a/	.	8cc\	.	8ff\	-czy	{ach}
8F\J	7_	8a/J	.	8cc\J	.	8ee-\	ſtwo-	.
8F\L	.	8a/L	.	8cc\L	.	4ee-\	-rze-	ach
8F\	.	8b-/	.	8dd\	.	.	.	.
8B-\	3	8b-/	.	8dd\	.	4dd\	-nie	{ach}
8B-\J	.	8b-/J	.	8dd\J	.	.	.	.
!	!	!	!	!LO:LB:g=original	!	!LO:LB:g=original	!	!
=58	=58	=58	=58	=58	=58	=58	=58	=58
8E-\L	.	8ee-\L	.	8gg\L	.	8gg\	któ-	ſkrusz
8E-\	.	8ee-\	.	16ff\L	.	16ff\LL	-re	twar-
.	.	.	.	16ee-\JJ	.	16ee-\JJ	.	.
8D\	.	8dd\	.	8ff\L	.	16dd\LL	nie	-de
.	.	.	.	.	.	16cc\JJ	.	.
8F\J	.	8dd\J	.	8ff\J	.	16b-\LL	zgrze-	su-
.	.	.	.	.	.	16a-\JJ	.	.
8BB-/L	.	8dd\L	.	8b-\L	.	4b-\	-szy-	-mie-
8BB-/	8	8gg\	.	8bb-\	.	.	.	.
8BB-/	8	8gg\	.	8bb-\	.	4b-\	-ło	-nie-
8BB-/J	7-	8ff\J	.	8aa-X\J	.	.	.	.
!LO:LB:g=original	!	!	!	!	!	!	!	!
=59	=59	=59	=59	=59	=59	=59	=59	=59
!	!	!LO:TX:a:t=P:problem:mixed beam	!	!	!	!	!	!
4E-\	.	8ee-\L	.	8gg\	.	8g\L	Cie-	puij-
.	.	8e-/	.	4gg\	.	8b-\J	.	.
4r	.	8e-/	.	.	.	8b-\	-bie	-dą
.	.	8b-/J	.	8ff\	.	8a-\	zal	gdy
2r	.	8B-/L	.	8ff\L	.	8a-\L	-mi-	zda-
.	.	8B-/	.	8ee-\	.	8g\J	.	.
.	.	8B-/	.	8ee-\	.	8g\L	-ia	-rziſz
.	.	8B-/J	.	8dd\J	.	8f\J	.	.
=60	=60	=60	=60	=60	=60	=60	=60	=60
4BB-/	.	8B-/L	.	8dd\L	.	8f/L	cie-	poij-
.	.	8B-/	.	8ff\	.	8a-/J	.	.
4r	.	8B-/	.	8ff\	.	8a-\	-bie	-dą-
.	.	8B-/J	.	8ee-\J	.	8g\	zal	gdy
2r	.	8B-/L	.	8ee-\L	.	8g/L	mi-	zda-
.	.	8B-/	.	8dd\	.	8f/J	.	.
.	.	8B-/	.	8dd\	.	4f/	-ia	-rzyſz
.	.	8B-/J	.	8dd\J	.	.	.	.
!	!	!	!	!	!	!LO:LB:g=original	!	!
=61	=61	=61	=61	=61	=61	=61	=61	=61
!	!	!	!	!LO:TX:a:t=P:problem:mixed beam	!	!	!	!
8E-\L	.	8g/L	.	8ee-\L	.	16g\LL	Cos	rzew-
.	.	.	.	.	.	16a-\JJ	.	.
8G\	.	8g/	.	8g/	.	16b-\LL	Bo-	-li-
.	.	.	.	.	.	16a-\JJ	.	.
!LO:TX:a:t=P:problem:mixed beam	!	!	!	!	!	!	!	!
8B-\	.	8g/	.	8g/	.	8g/	-ga	-we
8BB-/J	.	8f/J	.	8f/J	.	8f/	za-	ſtru-
!	!	!LO:TX:a:t=P:problem:mixed beam	!	!LO:TX:a:t=P:problem:mixed beam	!	!	!	!
8E-\L	.	8g/L	.	8g/L	.	4e-/	-bi-	-mie-
8E-\	.	8ee-\	.	8ee-\	.	.	.	.
8B-\	.	8dd\	.	8dd\	.	4e-/	-ło	-nie
8E-\J	.	8cc\J	.	8cc\J	.	.	.	.
!	!	!LO:PB:g=original	!	!	!	!	!	!
=62	=62	=62	=62	=62	=62	=62	=62	=62
!	!	!LO:TX:a:t=P:problem:mixed beam	!	!	!	!	!	!
4BB-/	6 4	8b-\L	.	8b-\	.	0r	.	.
.	.	8B-/	.	4b-/	.	.	.	.
4r	.	8B-/	.	.	.	.	.	.
.	.	8B-/J	.	8a-X/	.	.	.	.
2r	.	8B-/L	.	8a-/L	.	.	.	.
.	.	8B-/	.	8g/	.	.	.	.
.	.	8B-/	.	8g/	.	.	.	.
.	.	8B-/J	.	8f/J	.	.	.	.
!	!	!	!	!LO:LB:g=original	!	!	!	!
=63	=63	=63	=63	=63	=63	=63	=63	=63
4BB-/	5 3	8B-/L	.	8f/L	.	.	.	.
.	.	8B-/	.	8a-/	.	.	.	.
4r	.	8B-/	.	8a-/	.	.	.	.
.	.	8B-/J	.	8g/J	.	.	.	.
2r	.	8B-/L	.	8g/L	.	.	.	.
.	.	8B-/	.	8f/	.	.	.	.
.	.	8B-/	.	8f/	.	.	.	.
.	.	8B-/J	.	8e-/J	.	.	.	.
=64	=64	=64	=64	=64	=64	=64	=64	=64
!	!	!LO:TX:a:t=P:problem:mixed beam	!	!LO:TX:a:t=P:problem:mixed beam	!LO:DY:a	!	!	!
!	!	!	!	!	!LO:DY:t=For	!	!	!
8BB-'/L	.	8B-/L	.	8e-/L	f	8g\L	Cie-	poij-
8BB-'/	.	8b-\	.	8gg\	.	8b-\J	.	.
8BB-'/	.	8b-\	.	8gg\	.	8b-\	-bie	-dą
8BB-'/J	.	8a-X\J	.	8ff\J	.	8a-\	zal	gdy
8BB-'/L	.	8a-/L	.	8ff\L	.	8a-\L	mi-	zda-
8BB-'/	.	8g/	.	8ee-\	.	8g\J	.	.
8BB-'/	.	8g/	.	8ee-\	.	8g\L	-ia	-rzysz
8BB-'/J	.	8f/J	.	8dd\J	.	8f\J	.	.
!LO:LB:g=original	!	!	!	!	!	!	!	!
=65	=65	=65	=65	=65	=65	=65	=65	=65
8BB-/L	.	8f/L	.	8dd\L	.	8f/L	cie-	poij-
8BB-/	.	8a-/	.	8ff\	.	8a-/J	.	.
8BB-/	.	8a-/	.	8ff\	.	8a-/	-bie	-dą
8BB-/J	.	8g/J	.	8ee-\J	.	8g/	zal	gdy
8BB-/L	.	8g/L	.	8ee-\L	.	8g/L	mi-	zda-
8BB-/	.	8f/	.	8dd\	.	8f/J	.	.
8BB-/	.	8f/	.	8dd\	.	4f/	-ia	-rzysz.
8BB-/J	.	8f/J	.	8dd\J	.	.	.	.
!	!	!	!	!	!	!LO:PB:g=original	!	!
=66	=66	=66	=66	=66	=66	=66	=66	=66
8E-\L	5	8g/L	.	8ee-\L	.	16g\LL	Cos	rze-
.	.	.	.	.	.	16b-\JJ	.	.
8G\	.	8g/	.	8cc\	.	8ee-\	Bo-	-li-
!LO:TX:a:t=P:problem:mixed beam	!	!	!	!	!	!	!	!
8B-\	.	8f/	.	8dd\	.	8.dd\	-ga	-we
8BB-/J	4	8f/J	.	8dd\J	.	.	.	.
.	3	.	.	.	.	16dd\	za-	ſtru-
!	!	!	!	!LO:TX:a:t=P:problem:mixed beam	!	!	!	!
8E-\L	5	8G/L 8g	.	8ee-\L	.	4ee-\	-bi-	-mie-
8E-\	.	8G/ 8g	.	8G/ 8e-	.	.	.	.
8E-\	.	8G/ 8g	.	8G/ 8e-	.	4ee-\	-ło	-nie
8E-\J	.	8G/J 8g	.	8G/J 8e-	.	.	.	.
=67	=67	=67	=67	=67	=67	=67	=67	=67
*2\right	*	*	*	*	*	*	*	*
2E-\	.	2e-/	.	4G/ 4g	.	1r	.	.
.	.	.	.	4r	.	.	.	.
!LO:TX:a:t=Da Capo	!	!	!	!LO:TX:a:t=Da Capo	!	!	!	!
2r	.	2r	.	2r	.	.	.	.
!LO:PB:g=original	!	!LO:LB:g=original	!	!LO:PB:g=original	!	!	!	!
=68||	=68||	=68||	=68||	=68||	=68||	=68||	=68||	=68||
*>C	*	*>C	*	*>C	*	*>C	*	*
*k[b-e-]	*	*k[b-e-]	*	*k[b-e-]	*	*k[b-e-]	*	*
!LO:TX:a:t=3	!	!LO:TX:a:t=3	!	!LO:TX:a:t=3	!	!LO:TX:a:t=3	!	!
!	!	!LO:TX:b:t=Uwarz Grzesznika	!	!LO:TX:b:t=Uwarz Grzesznika	!	!	!	!
1r	.	2r	.	8dd\L	.	00r	.	.
.	.	.	.	8gg\	.	.	.	.
.	.	.	.	8ff#X\	.	.	.	.
.	.	.	.	8gg\J	.	.	.	.
.	.	8dd\L	.	8aa\L	.	.	.	.
.	.	8gg\	.	8bb-\	.	.	.	.
.	.	8ff#X\	.	8aa\	.	.	.	.
.	.	8gg\J	.	8bb-\J	.	.	.	.
=69	=69	=69	=69	=69	=69	=69	=69	=69
8D\L	#	8ff#X\	.	8aa\	.	.	.	.
8G\	.	4bb-\	.	4ddd\	.	.	.	.
8F#X\	.	.	.	.	.	.	.	.
8G\J	.	16aa\LL	.	16ccc\LL	.	.	.	.
.	.	16gg\JJ	.	16bb-\JJ	.	.	.	.
!	!	!LO:TX:a:t=P:problem:mixed beam	!	!	!	!	!	!
8A\L	6| 4	8ff#X\L	.	8aa\L	.	.	.	.
16D\L	#	8d/J	.	8dd\J	.	.	.	.
16E-\JJ	.	.	.	.	.	.	.	.
8F#X\L	.	8r	.	8r	.	.	.	.
8E-\J	.	16ff#X\LL	.	16aa\LL	.	.	.	.
.	.	16gg\JJ	.	16bb-\JJ	.	.	.	.
=70	=70	=70	=70	=70	=70	=70	=70	=70
8D\	7 #	16aa\LL	.	16ccc\LL	.	.	.	.
.	.	16gg\	.	16bb-\	.	.	.	.
8r	.	16ff\	.	16aa\	.	.	.	.
.	.	16gg\JJ	.	16bb-\JJ	.	.	.	.
8D\	7 #	16aa\LL	.	16ccc\LL	.	.	.	.
.	.	16gg\	.	16bb-\	.	.	.	.
4r	.	16ff#X\	.	16aa\	.	.	.	.
.	.	16ee-\JJ	.	16bb-\JJ	.	.	.	.
!	!	!LO:TX:a:t=P:problem:mixed beam	!	!	!	!	!	!
.	.	8dd\L	.	8ff#X\L	.	.	.	.
16D\LL	.	8d/J	.	8dd\J	.	.	.	.
16E-\JJ	.	.	.	.	.	.	.	.
8F\L	.	8r	.	8r	.	.	.	.
8G\J	.	8ee-X\	.	8gg\	.	.	.	.
=71	=71	=71	=71	=71	=71	=71	=71	=71
16r	.	8cc\	.	8gg\L	.	.	.	.
16C/LL	3	.	.	.	.	.	.	.
16D/JJ	.	8r	.	8cc\J	.	.	.	.
8E-\L	3	.	.	.	.	.	.	.
!	!	!	!	!LO:LB:g=original	!	!	!	!
.	.	8dd\	.	4ffn\	.	.	.	.
8Fn\J	.	.	.	.	.	.	.	.
.	.	4b-\	.	.	.	.	.	.
16r	.	.	.	.	.	.	.	.
8BB-/L	3	.	.	8ff\L	.	.	.	.
8C/J	.	8r	.	8b-\J	.	.	.	.
8D\L	.	8cc\	.	4ee-\	.	.	.	.
8E-\J	.	8r	.	.	.	.	.	.
!LO:LB:g=original	!	!	!	!	!	!	!	!
=72	=72	=72	=72	=72	=72	=72	=72	=72
!	!	!	!	!LO:TX:a:t=P:problem:mixed beam	!	!	!	!
8r	.	4a/	.	8ee-\L	.	1r	.	.
16AA/LL	.	.	.	8a/J	.	.	.	.
16BB-/JJ	.	.	.	.	.	.	.	.
!LO:TX:a:t=P:problem:mixed beam	!	!	!	!LO:TX:a:t=P:problem:mixed beam	!	!	!	!
8GG/L	.	8r	.	8dd\L	.	.	.	.
!	!	!LO:LB:g=original	!	!	!	!	!	!
8G\J	.	8b-\	.	8g/J	.	.	.	.
8A\L	5	4a/	.	4cc\	.	.	.	.
16A\L	.	.	.	.	.	.	.	.
16G\JJ	.	.	.	.	.	.	.	.
8F#X\L	6	16a/LL	.	16cc\LL	.	.	.	.
.	.	16cc/	.	16ee-\	.	.	.	.
8D\J	.	16b-/	.	16dd\	.	.	.	.
.	.	16a/JJ	.	16cc\JJ	.	.	.	.
=73	=73	=73	=73	=73	=73	=73	=73	=73
!LO:TX:a:t=P:problem:mixed beam	!	!	!	!	!	!	!	!
8G\L	.	8f/L	.	16b-/LL	.	2r	.	.
.	.	.	.	16g/	.	.	.	.
8GG/J	.	8d/	.	16ee-/	.	.	.	.
.	.	.	.	16g/JJ	.	.	.	.
!LO:TX:a:t=P:problem:mixed beam	!	!	!	!	!	!	!	!
8D\L	.	8.d/	.	8.g/L	.	.	.	.
8DD/J	.	.	.	.	.	.	.	.
.	.	16c/J	.	16f#X/Jk	.	.	.	.
.	.	.	.	.	.	.	.	.
4GG/	.	8B-/L	.	8g/L	.	4gg\	U-	Pa-
!	!	!	!	!	!LO:DY:t=pia	!	!	!
!	!	!	!LO:DY:a	!	!LO:DY:a	!	!	!
.	.	16g/L	p	16g/L	p	.	.	.
.	.	16a/JJ	.	16a/JJ	.	.	.	.
4r	.	8b-/L	.	8b-/L	.	8dd\	-warz	-trzai
.	.	8a/J	.	8a/J	.	8cc\	grzesz-	na
=74	=74	=74	=74	=74	=74	=74	=74	=74
00r	.	8b-/L	.	8b-/L	.	4b-\	-ni-	ob-
.	.	8g/	.	8g/	.	.	.	.
.	.	8f#X/	.	8f#X/	.	4a\	-ku	-raz
.	.	8d/J	.	8d/J	.	.	.	.
!	!	!	!	!LO:LB:g=original	!	!	!	!
.	.	8g/L	.	8g/L	.	16g\LL	na	zba-
.	.	.	.	.	.	16a\JJ	.	-wie-
.	.	8g/	.	8g/	.	16b-\LL	nie-	-nnẏ
.	.	.	.	.	.	16a\JJ	.	.
!	!	!	!	!	!	!LO:LB:g=original	!	!
.	.	8g/	.	8g/	.	8b-\	-bo	nei-
.	.	8g/J	.	8g/J	.	8cc\	zaw-	-my-
=75	=75	=75	=75	=75	=75	=75	=75	=75
.	.	8f#X/L	.	8f#X/L	.	8dd\	-zię-	-lej
.	.	16d/L	.	16d/L	.	8d/	-ty	ci
.	.	16e-/JJ	.	16e-/JJ	.	.	.	.
.	.	8f#/L	.	8f#/L	.	4r	.	.
.	.	8d/J	.	8d/J	.	.	.	.
!	!	!	!	!LO:TX:a:t=P:problem:mixed beam	!	!	!	!
.	.	8Bn/L	.	8Bn/L	.	8dd\L	ze	Za-
.	.	8g/	.	8bn\	.	8ee-\J	.	.
.	.	8g/	.	8b\	.	(16ff-X\LL	za	-luẏ
.	.	.	.	.	.	16ee-\JJ)	.	.
.	.	8g/J	.	8b\J	.	(16dd\LL	cie	żes
.	.	.	.	.	.	16cc\JJ)	.	.
=76	=76	=76	=76	=76	=76	=76	=76	=76
.	.	8g/L	.	8g/L	.	4bn\	Chrys-	zgrzy-
.	.	8f/	.	8f/	.	.	.	.
.	.	8e-/	.	8e-/	.	8cc\	-tus	-zył
.	.	8c/J	.	8c/J	.	16dd\LL	na	po-
.	.	.	.	.	.	16ee-\JJ	.	.
.	.	8f/L	.	8f/L	.	16ff\LL	krzyż	-rzuc
.	.	.	.	.	.	16ee-\	.	.
.	.	8a-X/	.	8a-X/	.	16dd\	.	.
.	.	.	.	.	.	16cc\JJ	.	.
.	.	8g/	.	8g/	.	8.bn\	swój	ſpro-
.	.	8G/J	.	8G/J	.	.	.	.
.	.	.	.	.	.	16b\	przy-	-ſne
=77	=77	=77	=77	=77	=77	=77	=77	=77
!	!	!LO:TX:a:t=P:problem:mixed beam	!	!LO:TX:a:t=P:problem:mixed beam	!	!	!	!
.	.	8c/L	.	8c/L	.	8cc\	-pię-	Zło-
.	.	16cc\L	.	16cc\L	.	8c/	-tẏ	-ſci
.	.	16b-\JJ	.	16dd\JJ	.	.	.	.
!	!	!LO:LB:g=original	!	!	!	!	!	!
.	.	16cc\LL	.	16ee-\LL	.	4.r	.	.
.	.	16b-\	.	16dd\	.	.	.	.
.	.	16a\	.	16cc\	.	.	.	.
.	.	16g\JJ	.	16b-\JJ	.	.	.	.
.	.	8f/L	.	8a'/L	.	.	.	.
.	.	8f/	.	8a'/	.	16cc\LL	ze	za-
.	.	.	.	.	.	16dd\JJ	.	.
.	.	8f/	.	8a'/	.	16ee-\LL	za	-luj
.	.	.	.	.	.	16dd\JJ	.	.
!	!	!	!	!	!	!LO:LB:g=original	!	!
.	.	8f/J	.	8a'/J	.	16cc\LL	cię	ześ
.	.	.	.	.	.	16b-X\JJ	.	.
!	!	!	!	!LO:LB:g=original	!	!	!	!
=78	=78	=78	=78	=78	=78	=78	=78	=78
1r	.	8f/L	.	8f/L	.	4a\	Chrys-	zgrzy
.	.	8e-/	.	8e-/	.	.	.	.
.	.	8d/	.	8d/	.	8b-\	-tus	-ſzył
.	.	8c/J	.	8c/J	.	8ee-\	na	po-
.	.	8B-/L	.	8B-/L	.	4dd\	krzy-	-rzuc
.	.	8d/	.	8d/	.	.	.	.
.	.	8f/	.	8f/	.	8cc\	-żu	ſpro-
.	.	8A/J	.	8A/J	.	8dd\	przy-	-ſne
=79	=79	=79	=79	=79	=79	=79	=79	=79
!	!	!LO:TX:a:t=P:problem:mixed beam	!	!LO:TX:a:t=P:problem:mixed beam	!	!	!	!
8r	.	8B-/L	.	8B-/L	.	8b-\	-pię-	Zło-
16BB-/LL	.	8dd\	.	8ff\J	.	8c/	-tẏ	-ſci
16C/JJ	.	.	.	.	.	.	.	.
8D/L	6	8dd\	.	8bb-\L	.	4r	.	.
8E-/J	3	8ee-\J	.	8gg\J	.	.	.	.
8D/L	.	16ee-\LL	.	16gg\LL	.	2r	.	.
.	.	16dd\	.	16ff\	.	.	.	.
8BB-/	.	16dd\	.	16ff\	.	.	.	.
.	.	16cc\JJ	.	16aa\JJ	.	.	.	.
8C/	.	8b-\L	.	8bb-\L	.	.	.	.
8D/J	3	8cc\J	.	8ee-\J	.	.	.	.
=80	=80	=80	=80	=80	=80	=80	=80	=80
!	!	!	!	!	!	!LO:TX:a:t=3	!	!
8D/L	.	16cc\LL	.	16ee-\LL	.	0r	.	.
.	.	16b-\	.	16dd\	.	.	.	.
8BB-/	.	16b-\	.	16dd\	.	.	.	.
.	.	16a\JJ	.	16ff\JJ	.	.	.	.
!	!	!	!	!LO:TX:a:t=P:problem:mixed beam	!	!	!	!
8GG/	.	8b-/L	.	8gg\L	.	.	.	.
8BB-/J	.	8g/J	.	8b-/J	.	.	.	.
!LO:LB:g=original	!	!	!	!	!	!	!	!
!LO:TX:a:t=P:problem:mixed beam	!	!	!	!	!	!	!	!
8AA/L	6	4f/	.	4a/	.	.	.	.
16F\L	.	.	.	.	.	.	.	.
16G\JJ	.	.	.	.	.	.	.	.
8A\L	.	8r	.	8r	.	.	.	.
8F\J	.	8f/	.	8f/	.	.	.	.
=81	=81	=81	=81	=81	=81	=81	=81	=81
8B-\	.	8f/L	.	(16b-\LL	.	.	.	.
.	.	.	.	16a\)	.	.	.	.
8r	.	8f/J	.	(16cc\	.	.	.	.
.	.	.	.	16b-\JJ)	.	.	.	.
8BB-/	.	(16b-\LL	.	(16dd\LL	.	.	.	.
.	.	16a\)	.	16cc\)	.	.	.	.
8r	.	(16cc\	.	(16ee-\	.	.	.	.
.	.	16b-\JJ)	.	16dd\JJ)	.	.	.	.
8F'\L	.	(16dd\LL	.	(16ff\LL	.	.	.	.
.	.	16cc\)	.	16ee-\)	.	.	.	.
8F'\	.	(16ee-\	.	(16gg\	.	.	.	.
.	.	16dd\JJ)	.	16ff\JJ)	.	.	.	.
!	!	!LO:LB:g=original	!	!	!	!	!	!
8F'\	.	(16dd\LL	.	(16ff\LL	.	.	.	.
.	.	16cc\	.	16ee-\)	.	.	.	.
8F'\J	.	16cc\	.	(16ee-\	.	.	.	.
.	.	16b-\JJ)	.	16dd\JJ)	.	.	.	.
!	!	!	!	!LO:LB:g=original	!	!	!	!
=82	=82	=82	=82	=82	=82	=82	=82	=82
8F`\L	.	(16b-/LL	.	16dd\LL	.	1r	.	.
.	.	16a/	.	16cc\	.	.	.	.
8F`\	.	16a/	.	16cc\	.	.	.	.
.	.	16g/JJ)	.	16b-\JJ	.	.	.	.
8F`\	.	(16g/LL	.	16b-/LL	.	.	.	.
.	.	16f/	.	16a/	.	.	.	.
8F`\J	.	16f/	.	16a/	.	.	.	.
.	.	16en/JJ)	.	16g/JJ	.	.	.	.
8F`\L	.	16f/LL	.	16g/LL	.	.	.	.
.	.	16f/J	.	16f/J	.	.	.	.
8F`\	.	8a/J	.	8f/J	.	.	.	.
8F`\	7:	4cc\	.	4ee-\	.	.	.	.
8F`\J	.	.	.	.	.	.	.	.
=83	=83	=83	=83	=83	=83	=83	=83	=83
8B-\L	.	8b-/L	.	8dd\L	.	2r	.	.
16D\L	.	8f/J	.	8b-\	.	.	.	.
16E-\JJ	.	.	.	.	.	.	.	.
!LO:TX:a:t=P:problem:mixed beam	!	!	!	!	!	!	!	!
8F\L	.	8.f/L	.	8.ccT\	.	.	.	.
8FF/J	4	.	.	.	.	.	.	.
.	3	16e-/Jk	.	16b-\Jk	.	.	.	.
4BB-/	.	4d/	.	4b-/	.	4b-\	Dro-	Cia-
4r	.	8g/L	.	8g/L	.	8bn\	-giem	-lo
.	.	8f/J	.	8fn/J	.	8b\	klei-	-nay-
!LO:LB:g=original	!	!	!	!	!	!	!	!
=84	=84	=84	=84	=84	=84	=84	=84	=84
!LO:TX:a:t=1	!	!	!	!	!	!	!	!
1r	.	8e-/L	.	8e-/L	.	4cc\	-no-	-ſwię-
.	.	8e-/	.	8e-/	.	.	.	.
.	.	8d/	.	8d/	.	4dd\	-tem	-tſze-
.	.	8Bn/J	.	8Bn/J	.	.	.	.
!	!	!	!	!	!	!LO:LB:g=original	!	!
.	.	8c/L	.	8c/L	.	8ee-\L	krwią	Człon-
.	.	8f/	.	8f/	.	16dd\L	ſwię-	-ki
.	.	.	.	.	.	16cc\JJ	-tą	tak
.	.	8g/	.	8g/	.	8.bn\L	o-	zra-
.	.	8G/J	.	8G/J	.	.	.	.
.	.	.	.	.	.	16b\Jk	-ku-	.
=85	=85	=85	=85	=85	=85	=85	=85	=85
8r	.	8c/L	.	8c/L	.	8cc\	-pu-	-nio-
16D/LL	.	16d/L	.	16d/L	.	8c/	-ie	-ne
16C/JJ	.	16c/JJ	.	16c/JJ	.	.	.	.
8BB-/L	6	8B-/L	.	8B-X/L	.	4r	.	.
8AA/J	6|	8A/J	.	8A/J	.	.	.	.
!	!	!LO:TX:a:t=P:problem:mixed beam	!	!	!	!	!	!
4GG/	.	8G/L	.	4G/	.	4dd\	Zba-	rę-
.	.	8b-\J	.	.	.	.	.	.
4r	.	8a/L	.	4r	.	8cc\	-wien-	-ka-
.	.	8g/J	.	.	.	8b-X\	-ną	-mi
!	!	!LO:LB:g=original	!	!LO:LB:g=original	!	!	!	!
=86	=86	=86	=86	=86	=86	=86	=86	=86
1r	.	4g/	.	2r	.	4b-\	Mi-	lot-
.	.	4f#X/	.	.	.	4a\	-łosc	-row
!	!	!LO:TX:a:t=P:problem:mixed beam	!	!	!	!	!	!
.	.	8e-/L	.	4ddd\	.	4b-\	Zba-	rę-
.	.	8bb-\	.	.	.	.	.	.
.	.	8aa\	.	8ccc\L	.	8a\	-wien-	-ka-
.	.	8gg\J	.	8bb-\J	.	8g\	-ną	-mi
=87	=87	=87	=87	=87	=87	=87	=87	=87
2r	.	4gg\	.	4bb-\	.	4g/	My-	lot-
.	.	4ff#X\	.	4aa\	.	4f#X/	-łosc	-row
4D/	.	4dd\	.	4bb-\	.	2r	.	.
8C`/L	.	8cc\L	.	8aa\L	.	.	.	.
8BB-`/J	.	8b-\J	.	8gg\J	.	.	.	.
!	!	!	!	!	!	!LO:LB:g=original	!	!
=88	=88	=88	=88	=88	=88	=88	=88	=88
8BB-/L	.	4b-/	.	4gg\	.	2r	.	.
8AA/J	.	.	.	.	.	.	.	.
8BB-/L	.	4a/	.	4ff#X\	.	.	.	.
8AA/J	.	.	.	.	.	.	.	.
!	!	!LO:TX:a:t=P:problem:mixed beam	!	!	!	!	!	!
8D\L	.	8e-/L	.	8dd\L	.	4dd\	zba-	rę-
8d\	.	8dd\	.	8ddd\	.	.	.	.
8c\	.	8cc\	.	8ccc\	.	8cc\	-wien-	-ka-
8B-\J	.	8b-\J	.	8bb-\J	.	8cc-X\	-ną	-mi
!LO:LB:g=original	!	!	!	!	!	!	!	!
=89	=89	=89	=89	=89	=89	=89	=89	=89
4B-\	.	4b-/	.	4bb-\	.	4b-\	My-	lot-
4A\	.	4a/	.	4aa\	.	4a\	-łosc	-row
!LO:TX:a:t=P:problem:mixed beam	!	!	!	!	!	!	!	!
8G\L	.	8g/L	.	16gg\LL	.	8b-\	ſmierć	ſa-
.	.	.	.	16bb-\	.	.	.	.
16BB-/L	.	8dd/	.	16aa\	.	16a\LL	ſwą	-mych
16C/JJ	.	.	.	16gg\JJ	.	16g\JJ	.	.
8D\L	.	8dd/	.	8.ff#X\L	.	8.a\	mę-	u-
!LO:TX:a:t=P:problem:mixed beam	!	!	!	!	!	!	!	!
8DD/J	4	8dd/J	.	.	.	.	.	.
.	3	.	.	16ff#\Jk	.	16a\	-ką	-drę-
=90	=90	=90	=90	=90	=90	=90	=90	=90
!	!	!LO:TX:a:t=P:problem:mixed beam	!	!LO:TX:a:t=P:problem:mixed beam	!	!	!	!
2GG/	.	8b-\L	.	8gg\L	.	8g\	tru-	-cze-
.	.	8B-/J	.	8g/J	.	8g\	-ie	-nie
.	.	4r	.	4r	.	4r	.	.
!	!	!	!	!LO:TX:a:t=Da Capo	!	!	!	!
2r	.	2r	.	2r	.	2r	.	.
=||	=||	=||	=||	=||	=||	=||	=||	=||
*-	*-	*-	*-	*-	*-	*-	*-	*-
!!!system-decoration: g1[(g2)]g3
!!!RDF**dynam: p=pia
!!!RDF**dynam: f=for
!!!ENC: Tomasz Grochalski
!!!END: 2020-04-23
!!!ENC:Anna Matuszewska
!!!END:2020-10-30
